X: 20411
Q: "Jig time."
M: 6/8
L: 1/8
K: D
f/>e/ |\
d>BA A>Bd | d3 z2a/>g/ |\
f>ed d>ef | Hg3 z2G |\
fdB ABd | f2d {f}He2 d/e/ |\
fdB ABd | d3- d2 |]


